web/public/assets/add-image.svg

<?xml version="1.0" encoding="UTF-8"?><svg width="24px" height="24px" stroke-width="1.1" viewBox="0 0 24 24" fill="none" xmlns="http://www.w3.org/2000/svg" color="#000000"><path d="M13 21H3.6C3.26863 21 3 20.7314 3 20.4V3.6C3 3.26863 3.26863 3 3.6 3H20.4C20.7314 3 21 3.26863 21 3.6V13" stroke="#000000" stroke-width="1.1" stroke-linecap="round" stroke-linejoin="round"></path><path d="M3 16L10 13L15.5 15.5" stroke="#000000" stroke-width="1.1" stroke-linecap="round" stroke-linejoin="round"></path><path d="M16 10C14.8954 10 14 9.10457 14 8C14 6.89543 14.8954 6 16 6C17.1046 6 18 6.89543 18 8C18 9.10457 17.1046 10 16 10Z" stroke="#000000" stroke-width="1.1" stroke-linecap="round" stroke-linejoin="round"></path><path d="M16 19H19M22 19H19M19 19V16M19 19V22" stroke="#000000" stroke-width="1.1" stroke-linecap="round" stroke-linejoin="round"></path></svg>

<svg width="24" height="24" stroke-width="1.1" fill="none" xmlns="http://www.w3.org/2000/svg" color="#797374"><path d="M13 21H3.6a.6.6 0 01-.6-.6V3.6a.6.6 0 01.6-.6h16.8a.6.6 0 01.6.6V13" stroke="#797374" stroke-linecap="round" stroke-linejoin="round"/><path d="M3 16l7-3 5.5 2.5M16 10a2 2 0 110-4 2 2 0 010 4zM16 19h3m3 0h-3m0 0v-3m0 3v3" stroke="#797374" stroke-linecap="round" stroke-linejoin="round"/></svg>
